X: 293
T: Mingulay Boat Song
B: steve song book
B: max
M:3/4
L:1/4
Q: 1/4=145
K:E
V:1 
"B"B,CD|"E"E3|"E"E3|"E"B2G|"E"G>FE|"E"E3|
"E"EDE|"B7"F2F-|"B7"F2E|"B7"GFE|"A"E3|"A"C3|
"B7"B,CD|"E"E3|"E"E3|"E"B2A|"E"G>FE|"E"E3|
"E"EDE|"B7"F3|"B7"F2E|"B7"GFE|"E"E3-|"A"E3-|"E"E3|
V:2 
BAF|G3|G3|e2B|B>AG|G3|
GFE|F2F-|F2E|GFE|E3|C3|
BAG|G3|G3|E2B|B>AG|G3|
GFE|F3|F2G|B2A|G3-|G3-|G3|
V:3 
BcA|B3|B3|B2G|B>AG|G3|
EDC|B,3-|B,2E|E2E|E3|C3|
B,CD|E3|E3|E2E|E3|E3|
EDC|B,3|B,2B,|C2E|E3-|E3-|E3|
W: [Chorus]
W: Heel ya ho, boys, let her go, boys
W: Heave her head round into the weather
W: Heel ya ho, boys, let her go, boys
W: Sailing homeward to Mingulay
W: 
W: [Verse 1]
W: What care we how white the Minch is?
W: What care we boys the windy weather?
W: When we know that every inch is
W: Closer homeward to Mingulay
W: [Chorus]
W: Heel ya ho, boys, let her go, boys
W: Heave her head round into the weather
W: Heel ya ho, boys, let her go, boys
W: Sailing homeward to Mingulay
W: 
W: [Verse 2]
W: Wives are waiting on the pier head
W: Gazing seaward from the heather
W: Heave ahead round and we'll anchor
W: Ere the sun sets on Mingulay
W: 
W: [Chorus]
W: Heel ya ho, boys, let her go, boys
W: Heave her head round into the weather
W: Heel ya ho, boys, let her go, boys
W: Sailing homeward to Mingulay
W: Sailing homeward to Mingulay
% abcbook-tune_id 62a2d1e85bfed6757bef0dc9


% abcbook-boost 0
% abcbook-tablature 
% abcbook-transpose 
% abcbook-lastupdated 1654859081994
% abcbook-soundfonts 
% abcbook-repeats 1


